X: 1
T: Michael Turner's
M: 3/4
L: 1/8
R: waltz
K: Gmaj
|:GA | B2 BG cA | d2 d2 gf | e2 ef ge | d2 d2 GA |
B2 BG cA | d2 d2 cA | G2 GB AF | G4 :|
|: AB | c2 cd Bc | A2 A2 Bc |d2 de cd | B2 B2 gf |
e2 ef ge | d2 d2 GA | B2 Bc AB | G4 :|
